X: 3
P: Abbots Bromley Horn Dance
N: Traditional English
M: 6/8
L: 1/8
Z: Andy Hornby
%%ID: 00000dab
F: http://www.leeds.ac.uk/music/Info/RRTuneBk/gettune/00000dab.abc
K: Em
e | B2e G2e | B2e E2G | FGA GAB |1 AGF G2 :|2 AGF E2 |] e | c2e cde | A2c ABc | FGA GFE | ^DEF B,2g |
  | e2g efg | c2e cde | dcB AGF | E3E2 |: A | BcB e3 | BcB f3 | BcB AGF |1 G2F G2 :|2 E3-E2 |]
